src/assets/icons/icon-close.svg

<svg width='8' height='7' fill='none' xmlns='http://www.w3.org/2000/svg'><path fill-rule='evenodd' clip-rule='evenodd' d='M0 0h2v1h1v1h2V1h1V0h2v1H7v1H6v1H5v1h1v1h1v1h1v1H6V6H5V5H3v1H2v1H0V6h1V5h1V4h1V3H2V2H1V1H0V0z' fill='#000'/></svg>

<svg width="8" height="7" viewBox="0 0 8 7" fill="none" xmlns="http://www.w3.org/2000/svg">
<path fill-rule="evenodd" clip-rule="evenodd" d="M0 0H2V1H3V2H5V1H6V0H8V1H7V2H6V3H5V4H6V5H7V6H8V7H6V6H5V5H3V6H2V7H0V6H1V5H2V4H3V3H2V2H1V1H0V0Z" fill="black"/>
</svg>
